!!!!SEGMENT: pl-cz--iii-451--007_maader-ludwik--missa-g-benedictus.krn
!!!cenid: 18xx:967
!!!COM: Maader, Ludwik
!!!COM-rismID: pe30020328
!!!CDT: <1794->1798
!!!CNT:
!!!OPR: Missa G
!!!OTL: Benedictus
!!!OMV: 007
!!!PDT: 1815
!!!AGN: Sacred; Mass
!!!SMS-siglum: PL-CZ
!!!SMS-shelfmark: III-451
!!!SMS-shelfwork: 001-007 M
!!!SMS-variant:
!!!SMS-altvar:
!!!NIFC-rismSourceID: 300000763
!!!NIFC-rismChildID: 300000763
!!!NIFC-islandoraID: pl-cz:38436
!!!URL-pdf-islandora: https://repozytorium.nifc.pl/islandora/object/pl-cz%3A38436/datastream/PDF/view
!!!URL-scan: https://polish.musicsources.pl/pl/lokalizacje/galeria/rekopisy/6930/1 @EN{Scan on Polish Music Sources Website} @PL{Skany w portalu Dziedzictwo Muzyki Polskiej w otwartym dostępie}
!!!IIIF:
!!!ONB-nifc: UWAGA: części Mszy: Kyrie, Gloria, Credo, Et incarnatus, Sanctus, Pleni sunt, Benedicuts, Agnus Dei
!!!AIN: 1 bass 2 cor 2 flt 1 organ 2 soprn 2 violn
!!!key: C
**kern	**kern	**text	**dynam	**kern	**dynam	**kern	**dynam	**kern	**text	**kern	**text	**kern	**text	**kern	**kern	**kern	**dynam	**kern	**dynam
*	*	*	*	*group4	*	*group4	*	*group3	*	*group3	*	*group3	*	*group2	*group2	*group1	*	*group1	*
*part10	*part10	*part10	*part10	*part9	*part9	*part8	*part8	*part7	*part7	*part6	*part6	*part5	*part5	*part4	*part3	*part2	*part2	*part1	*part1
*staff11	*staff10	*staff10	*	*staff9	*	*staff8	*	*staff7	*staff7	*staff6	*staff6	*staff5	*staff5	*staff4	*staff3	*staff2	*	*staff1	*
*I"ORGANO CONCERTANDO	*	*	*	*I"Violino SECONDO	*	*I"Violino Primo	*	*I"BASSO	*	*I"CANTO SECONDO	*	*I"CANTO Primo	*	*I"Cornu SeCondo	*I"Cornu Primo	*I"Flauto Secundo	*	*I"Flauto Primo	*
*I'org	*	*	*	*I'vl 2	*	*I'vl 1	*	*I'B	*	*I'S 2	*	*I'S 1	*	*I'cor 2 in G	*I'cor 1 in G	*I'fl 2	*	*I'fl 1	*
*Iorgan	*	*	*	*Ivioln	*	*Ivioln	*	*Ibass	*	*Isoprn	*	*Isoprn	*	*Icor	*Icor	*Iflt	*	*Iflt	*
*ICklav	*	*	*	*ICstr	*	*ICstr	*	*ICvox	*	*ICvox	*	*ICvox	*	*ICbras	*ICbras	*ICww	*	*ICww	*
*IGcont	*	*	*	*	*	*	*	*IGcoro	*	*IGcoro	*	*IGcoro	*	*	*	*	*	*	*
*clefF4	*clefG2	*	*	*clefG2	*	*clefG2	*	*clefF4	*	*clefC1	*	*clefC1	*	*	*	*clefG2	*	*clefG2	*
*ITrd-1c-2	*ITrd-1c-2	*	*	*	*	*	*	*	*	*	*	*	*	*	*	*	*	*	*
*k[]	*k[]	*	*	*k[]	*	*k[]	*	*k[]	*	*k[]	*	*k[]	*	*	*	*k[]	*	*k[]	*
*C:	*C:	*	*	*C:	*	*C:	*	*C:	*	*C:	*	*C:	*	*	*	*C:	*	*C:	*
*M2/4	*M2/4	*	*	*M2/4	*	*M2/4	*	*M2/4	*	*M2/4	*	*M2/4	*	*	*	*M2/4	*	*M2/4	*
*all\right	*all\right	*	*	*all\right	*	*all\right	*	*all\right	*	*all\right	*	*all\right	*	*	*	*all\right	*	*all\right	*
*	*	*	*	*	*	*	*^	*	*	*	*	*	*	*	*	*	*	*	*
!	!LO:TX:a:i:t=Solo.	!	!	!LO:TX:a:i:t=Solo:color=red	!	!LO:TX:a:i:t=Solo:color=red	!	!	!LO:TX:a:i:t=Solo:color=red	!	!LO:TX:a:i:t=Solo:color=red	!	!LO:TX:a:i:t=Solo:color=red	!	!	!	!LO:TX:a:i:t=Solo	!	!LO:TX:a:i:t=Solo	!
!	!LO:TX:a:Bi:t=Andante.:color=red	!	!LO:DY:a	!LO:TX:a:Bi:t=Andante:color=red	!LO:DY:b:t=piano.	!LO:TX:a:Bi:t=Andante:color=red	!LO:DY:a:t=Pian	!LO:DY:b:t=piano	!LO:TX:a:Bi:t=Andante:color=red	!	!LO:TX:a:Bi:t=Andante:color=red	!	!LO:TX:a:Bi:t=Andante:color=red	!	!LO:TX:a:i:t=Benedictus Tacet	!LO:TX:a:i:t=Benedictus Tacet	!LO:TX:a:Bi:t=Andante:color=redLO:TX:a:Bi:t=Andante:color=red	!LO:DY:a	!LO:TX:a:Bi:t=Andante:color=red	!LO:DY:a
8r	16g/	Be-	p	16g/LL	p	16g/LL	p	p	16G\	Be-	16g\	Be-	16g\	Be-	8ryy	8ryy	8r	p	8gg\	p
.	16g/	-ne-	.	16g/JJ	.	16g/JJ	.	.	16G\	-ne-	16g\	-ne-	16g\	-ne-	.	.	.	.	.	.
*	*	*	*	*	*	*	*v	*v	*	*	*	*	*	*	*	*	*	*	*	*
=1	=1	=1	=1	=1	=1	=1	=1	=1	=1	=1	=1	=1	=1	=1	=1	=1	=1	=1	=1
.	8qg/	.	.	.	.	16qqg/	.	.	.	.	.	.	.	.	.	.	.	.	.
!LO:TX:t=P:problem=mixed beam	!	!	!	!	!	!	!	!	!	!	!	!	!	!	!	!	!	!	!
8c\L	8cc/	-dic-	.	16e/LL	.	8cc\L	.	8c\	-dic-	8cc\	-dic-	8cc\	-dic-	2ryy	2ryy	8ee\L	.	8ccc\L	.
.	.	.	.	16g/	.	.	.	.	.	.	.	.	.	.	.	.	.	.	.
8C/J	8cc/	-tus	.	16e/	.	8cc\J	.	8c\	-tus	8cc\	-tus	8cc\	-tus	.	.	8ee\J	.	8ccc\J	.
.	.	.	.	16g/JJ	.	.	.	.	.	.	.	.	.	.	.	.	.	.	.
8r	16cc/LL	qui	.	8e/	.	16cc\LL	.	8r	.	8r	.	8r	.	.	.	8r	.	8r	.
.	16g/	.	.	.	.	16g\	.	.	.	.	.	.	.	.	.	.	.	.	.
8c\	16cc/	.	.	8r	.	16cc\	.	8c\	qui	8ff\	qui	8ee\	qui	.	.	8ccc\	.	8eee\	.
.	16ee/JJ	.	.	.	.	16ee\JJ	.	.	.	.	.	.	.	.	.	.	.	.	.
=2	=2	=2	=2	=2	=2	=2	=2	=2	=2	=2	=2	=2	=2	=2	=2	=2	=2	=2	=2
.	16qqee/	.	.	.	.	16qqee/	.	.	.	.	.	.	.	.	.	.	.	.	.
8G\L	8dd\	ve-	.	16b\LL	.	8dd\L	.	8G\	ve-	8dd\	ve-	8dd\	ve-	2ryy	2ryy	8bb\L	.	8ddd\L	.
.	.	.	.	16dd\	.	.	.	.	.	.	.	.	.	.	.	.	.	.	.
8G\J	8dd\	-nit	.	16b\	.	8dd\J	.	8G\	-nit	8dd\	-nit	8dd\	-nit	.	.	8bb\J	.	8ddd\J	.
.	.	.	.	16dd\JJ	.	.	.	.	.	.	.	.	.	.	.	.	.	.	.
8r	16dd/LL	in	.	8b/	.	16dd\LL	.	8r	.	8r	.	8r	.	.	.	8r	.	8r	.
.	16g/	.	.	.	.	16g\	.	.	.	.	.	.	.	.	.	.	.	.	.
8B\	16dd/	.	.	8r	.	16dd\	.	8B\	in	8ff\	in	8ff\	in	.	.	8bb\	.	8fff\	.
.	16ff/JJ	.	.	.	.	16ff\JJ	.	.	.	.	.	.	.	.	.	.	.	.	.
=3	=3	=3	=3	=3	=3	=3	=3	=3	=3	=3	=3	=3	=3	=3	=3	=3	=3	=3	=3
.	.	.	.	.	.	16qqff/	.	.	.	.	.	.	.	.	.	.	.	.	.
8c\L	16ff\LL	no-	.	16e/LL	.	8ee\L	.	8c\	no-	(16ff\LL	no-	16ff\LL	no-	2ryy	2ryy	8ccc\	.	8eee\	.
.	16ee\	.	.	16g/	.	.	.	.	.	16ee\)	.	16ee\JJ	.	.	.	.	.	.	.
8E\J	16dd\	.	.	16e/	.	16dd\L	.	16E\	-mi-	(16dd\	-mi-	16dd\	-mi-	.	.	8r	.	8r	.
.	16cc\JJ	.	.	16g/JJ	.	16cc\JJ	.	16E\	-ne	16cc\JJ)	-ne	16cc\	-ne	.	.	.	.	.	.
4F\	16aa\LL	-mi-	.	16ff\LL	.	16aa\LL	.	4F\	Do-	(16aa\LL	Do-	16aa\LL	Do-	.	.	8ddd\L	.	8fff\L	.
.	16gg\JJ	.	.	16ee\	.	16gg\	.	.	.	16gg\)	.	16gg\JJ	.	.	.	.	.	.	.
.	16ff\LL	-ne	.	16dd\	.	16ff\	.	.	.	(16ff\	.	16ff\LL	.	.	.	8ccc\J	.	8eee\J	.
.	16ee\JJ	.	.	16cc\JJ	.	16ee\JJ	.	.	.	16ee\JJ)	.	16ee\JJ	.	.	.	.	.	.	.
!LO:LB:g=original	!LO:LB:g=original	!	!	!	!	!	!	!	!	!	!	!	!	!	!	!	!	!	!
=4	=4	=4	=4	=4	=4	=4	=4	=4	=4	=4	=4	=4	=4	=4	=4	=4	=4	=4	=4
!LO:TX:t=P:problem=mixed beam	!	!	!	!	!	!	!	!	!	!	!	!	!	!	!	!	!	!	!
8G\L	16dd\LL	Do-	.	16b\LL	.	16dd\LL	.	8G\	-mi-	(16dd\LL	.	(16dd\LL	.	2ryy	2ryy	4bb\	.	4ddd\	.
.	16cc\JJ	.	.	16a\	.	16cc\	.	.	.	16cc\JJ)	.	16cc\JJ)	.	.	.	.	.	.	.
8GG/	16dd\LL	-mi-	.	16b\	.	16dd\	.	8G\	-ni	(16dd\LL	-mi-	16dd\LL	-mi-	.	.	.	.	.	.
.	16ee\JJ	.	.	16cc\JJ	.	16ee\JJ	.	.	.	16ee\JJ)	.	16ee\JJ	.	.	.	.	.	.	.
!	!	!	!	!	!	!LO:TX:t=P:problem=mixed beam	!	!	!	!	!	!	!	!	!	!	!	!	!
8G\J	8dd\	-ni	.	8b\	.	8dd\L	.	8r	.	8dd\	-ni	8dd\	-ni	.	.	4r	.	8r	.
8r	16g/	Be-	.	8r	.	16g/L	.	16GG/	Be-	16g\	Be-	16g/	be-	.	.	.	.	8gg\	.
.	16g/	-ne-	.	.	.	16g/JJ	.	16GG/	-ne-	16g\	-ne-	16g/	-ne-	.	.	.	.	.	.
!	!	!	!	!	!	!	!	!LO:LB:g=original	!	!LO:LB:g=original	!	!LO:LB:g=original	!	!	!	!	!	!	!
=5	=5	=5	=5	=5	=5	=5	=5	=5	=5	=5	=5	=5	=5	=5	=5	=5	=5	=5	=5
.	8qg/	.	.	.	.	16qqg/	.	.	.	.	.	.	.	.	.	.	.	.	.
!LO:TX:t=P:problem=mixed beam	!	!	!	!	!	!	!	!	!	!	!	!	!	!	!	!	!	!	!
8c\L	8cc\	-dic-	.	16e/LL	.	8cc\L	.	8C/	-dic-	8cc\	-dic-	8cc\	-dic-	2ryy	2ryy	8ee\L	.	8ccc\L	.
.	.	.	.	16g/	.	.	.	.	.	.	.	.	.	.	.	.	.	.	.
8C/J	8cc\	-tus	.	16e/	.	8cc\J	.	8C/	-tus	8cc\	-tus	8cc\	-tus	.	.	8ee\J	.	8ccc\J	.
.	.	.	.	16g/JJ	.	.	.	.	.	.	.	.	.	.	.	.	.	.	.
8r	16cc/LL	qui	.	8e/	.	16cc\LL	.	8r	.	8r	.	8r	.	.	.	8r	.	8r	.
.	16g/	.	.	.	.	16g\	.	.	.	.	.	.	.	.	.	.	.	.	.
8c\	16cc/	.	.	8r	.	16cc\	.	8C/	qui	8ee\	qui	8ee\	qui	.	.	8ccc\	.	8eee\	.
.	16ee/JJ	.	.	.	.	16ee\JJ	.	.	.	.	.	.	.	.	.	.	.	.	.
!	!	!	!	!LO:LB:g=original	!	!	!	!	!	!	!	!	!	!	!	!LO:LB:g=original	!	!LO:LB:g=original	!
=6	=6	=6	=6	=6	=6	=6	=6	=6	=6	=6	=6	=6	=6	=6	=6	=6	=6	=6	=6
.	8qee/	.	.	.	.	16qqee/	.	.	.	.	.	.	.	.	.	.	.	.	.
8G\L	8dd\	ve-	.	16b\LL	.	8dd\L	.	8GG/	ve-	8dd\	ve-	8dd\	ve-	2ryy	2ryy	8bb\L|	.	8ddd\L|	.
.	.	.	.	16dd\	.	.	.	.	.	.	.	.	.	.	.	.	.	.	.
8G\J	8dd\	-nit	.	16b\	.	8dd\J	.	8GG/	-nit	8dd\	-nit	8dd\	-nit	.	.	8bb\J|	.	8ddd\J|	.
.	.	.	.	16dd\JJ	.	.	.	.	.	.	.	.	.	.	.	.	.	.	.
8r	16dd/LL	in	.	8b\	.	16dd\LL	.	8r	.	8r	.	8r	.	.	.	8r	.	8r	.
.	16g/	.	.	.	.	16g\	.	.	.	.	.	.	.	.	.	.	.	.	.
!	!	!	!	!	!	!	!	!LO:SIC:v:s=8G\	!	!	!	!	!	!	!	!	!	!	!
8B\	16dd/	.	.	8r	.	16dd\	.	8E\	in	8ff\	in	8ff\	in	.	.	8bb\	.	8ddd\	.
.	16ff/JJ	.	.	.	.	16ff\JJ	.	.	.	.	.	.	.	.	.	.	.	.	.
!	!	!	!	!	!	!LO:LB:g=original	!	!	!	!	!	!	!	!	!	!	!	!	!
=7	=7	=7	=7	=7	=7	=7	=7	=7	=7	=7	=7	=7	=7	=7	=7	=7	=7	=7	=7
.	.	.	.	.	.	16qqff/	.	.	.	.	.	.	.	.	.	.	.	.	.
8c\L	16ff\LL	no-	.	16e/LL	.	8ee\L	.	8c\	no-	(16ff\LL	no-	(16ff\LL	no-	2ryy	2ryy	8ccc\	.	8eee\	.
.	16ee\JJ	.	.	16g/	.	.	.	.	.	16ee\)	.	16ee\JJ)	.	.	.	.	.	.	.
8E\J	16dd\LL	-mi-	.	16e/	.	16dd\L	.	16E\	-mi-	(16dd\	-mi-	16dd\	-mi-	.	.	4ee\	.	4ccc\	.
.	16cc\JJ	-ne	.	16g/JJ	.	16cc\JJ	.	16E\	-ne	16cc\JJ)	-ne	16cc\	-ne	.	.	.	.	.	.
8F\L	16ee\LL	Do-	.	16g/LL	.	16ee\LL	.	8F\	Do-	(16ee\LL	Do-	(16ee\LL	Do-	.	.	.	.	.	.
.	16dd\JJ	.	.	16f/	.	16dd\	.	.	.	16dd\)	.	16dd\JJ)	.	.	.	.	.	.	.
8G\J	16cc\LL	-mi-	.	16e/	.	16cc\	.	8G\	-mi-	(16cc\	-mi-	(16cc\LL	-mi-	.	.	8ff\	.	8bb\	.
.	16b\JJ	.	.	16d/JJ	.	16b\JJ	.	.	.	16b\JJ)	.	16b\JJ)	.	.	.	.	.	.	.
=8	=8	=8	=8	=8	=8	=8	=8	=8	=8	=8	=8	=8	=8	=8	=8	=8	=8	=8	=8
!LO:TX:t=P:problem=mixed beam	!	!	!	!	!	!LO:TX:t=P:problem=mixed beam	!	!	!	!	!	!	!	!	!	!	!	!	!
16C/LL	4cc/	-ni	.	16e/LL	.	8cc\L	.	4c\	-ni	8b\	-ni	4cc\	-ni	2ryy	2ryy	4ee\	.	8ccc\|	.
16c\	.	.	.	16g/	.	.	.	.	.	.	.	.	.	.	.	.	.	.	.
16G\	.	.	.	16e/	.	8c/J	.	.	.	8r	.	.	.	.	.	.	.	8ryy	.
16E\JJ	.	.	.	16g/JJ	.	.	.	.	.	.	.	.	.	.	.	.	.	.	.
8C/	8r	.	.	8e/	.	16r	.	4r	.	8ryy	.	8r	.	.	.	16r	.	16r	.
.	.	.	.	.	.	16g/LL	.	.	.	.	.	.	.	.	.	16g/LL|	.	(16gg\LL	.
8r	16ee\LL	qui	.	8r	.	16cc/	.	.	.	16ee\LL	qui	(16ee\LL	qui	.	.	16cc/|	.	16ccc\)	.
.	16cc\JJ	.	.	.	.	16ee/JJ	.	.	.	16cc\JJ	.	16cc\JJ)	.	.	.	16ee/JJ|	.	16eee\JJ	.
=9	=9	=9	=9	=9	=9	=9	=9	=9	=9	=9	=9	=9	=9	=9	=9	=9	=9	=9	=9
!	!	!	!	!	!LO:DY:t=for	!	!	!	!	!	!	!	!	!	!	!	!	!	!
8r	16dd\LL	ve-	.	8r	f	16dd\LL	.	8r	.	(16dd\LL	ve-	(16dd\LL	ve-	2ryy	2ryy	(16dd\LL	.	(16ddd\LL	.
.	16b\JJ	.	.	.	.	16b\J	.	.	.	16b\JJ)	.	16b\JJ)	.	.	.	16b\J)	.	16bb\J)	.
16GLL 16GG/	8g/	-nit	.	16g/LL	.	8g\J	.	16G\	qui	8g\	-nit	8g\	-nit	.	.	8g\J|	.	8gg\J	.
16GJJ 16GG/	.	.	.	16g/JJ	.	.	.	16G\	ve-	.	.	.	.	.	.	.	.	.	.
8G 8GG/	8r	.	.	8g/	.	16r	.	8G\	-nit	8r	.	8r	.	.	.	16r	.	16r	.
.	.	.	.	.	.	16g/LL	.	.	.	.	.	.	.	.	.	16g/LL|	.	16gg\LL|	.
8r	16ee\LL	qui	.	8r	.	16cc/	.	8r	.	(16ee\LL	qui	(16ee\LL	qui	.	.	16cc/|	.	16ccc\|	.
.	16cc\JJ	.	.	.	.	16ee/JJ	.	.	.	16cc\JJ)	.	16cc\JJ)	.	.	.	16ee/JJ|	.	16eee\JJ|	.
!LO:LB:g=original	!LO:LB:g=original	!	!	!	!	!	!	!	!	!	!	!	!	!	!	!	!	!	!
=10	=10	=10	=10	=10	=10	=10	=10	=10	=10	=10	=10	=10	=10	=10	=10	=10	=10	=10	=10
8r	16dd\LL	ve-	.	8r	.	16dd\LL	.	8r	.	(16dd\LL	ve-	(16dd\LL	ve-	2ryy	2ryy	(16dd\LL	.	(16ddd\LL	.
.	16b\JJ	.	.	.	.	16b\J	.	.	.	16b\JJ)	.	16b\JJ)	.	.	.	16b\J)	.	16bb\J)	.
16GLL 16GG/	8g/	-nit	.	16g/LL	.	8g\J	.	16G\	qui	8g\	-nit	8g\	-nit	.	.	8g\J|	.	8gg\J|	.
16GJJ 16GG/	.	.	.	16g/JJ	.	.	.	16G\	ve-	.	.	.	.	.	.	.	.	.	.
8G 8GG/	8r	.	.	8g/	.	16r	.	8G\	-nit	8r	.	8r	.	.	.	8r	.	8r	.
.	.	.	.	.	.	16g/LL	.	.	.	.	.	.	.	.	.	.	.	.	.
8c\	16ee\LL	in	.	8r	.	16cc/	.	16c\	in	(16ee\LL	in	(16ee\LL	in	.	.	8ccc\	.	8eee\	.
.	16cc\JJ	.	.	.	.	16ee/JJ	.	16c\	no-	16cc\JJ)	.	16cc\JJ)	.	.	.	.	.	.	.
!	!	!	!	!	!	!	!	!LO:LB:g=original	!	!	!	!	!	!	!	!	!	!	!
=11	=11	=11	=11	=11	=11	=11	=11	=11	=11	=11	=11	=11	=11	=11	=11	=11	=11	=11	=11
!	!	!	!	!	!LO:DY:t=po	!	!	!	!	!	!	!	!	!	!	!	!	!	!
8B\L	16dd\LL	no-	.	8g/	p	16dd\LL	.	8B\	-mi-	(16dd\LL	no-	(16dd\LL	no-	2ryy	2ryy	8bb\L|	.	8ddd\L|	.
.	16gg\JJ	.	.	.	.	16gg\	.	.	.	16gg\)	.	16gg\	.	.	.	.	.	.	.
8c\J	16ee/LL	-mi-	.	4g/	.	16ee\	.	8c\	-ne	(16ee\	-mi-	16ee\	-mi-	.	.	(16ccc\L	.	(16eee\L	.
.	16cc/JJ	ne	.	.	.	16cc\JJ	.	.	.	16cc\JJ)	-ne	16cc\JJ)	-ne	.	.	16aa\JJ)	.	16ccc\JJ)	.
!LO:TX:t=P:problem=mixed beam	!	!	!	!	!	!	!	!	!	!	!	!	!	!	!	!	!	!	!
8d\L	16b/LL	Do-	.	.	.	16b\LL	.	8d\	Do-	(16b\LL	Do-	16b\LL	Do-	.	.	8gg\L|	.	8bb\L	.
.	16dd/JJ	.	.	.	.	16dd\	.	.	.	16dd\)	.	16dd\	.	.	.	.	.	.	.
8D/J	16cc/LL	-mi-	.	8f#X/	.	16cc\	.	8D/	-mi-	(16cc\	-mi-	16cc\	-mi-	.	.	(16aa\L	.	16ccc\L	.
!	!	!	!	!	!	!	!	!	!	!	!	!	!	!	!	!LO:SIC:v:s=16ff#\JJ)	!	!	!
.	16a/JJ	-ni	.	.	.	16a\JJ	.	.	.	16a\JJ)	.	16a\JJ	.	.	.	16ff\JJ)	.	16aa\JJ	.
!	!	!	!	!	!	!	!	!	!	!	!	!LO:LB:g=original	!	!	!	!LO:LB:g=original	!	!	!
=12	=12	=12	=12	=12	=12	=12	=12	=12	=12	=12	=12	=12	=12	=12	=12	=12	=12	=12	=12
*	*^	*	*	*	*	*	*	*	*	*	*	*	*	*	*	*	*	*	*
!	!LO:TX:a:i:t=Solo:rj	!	!	!	!	!	!	!	!	!	!	!	!	!	!	!	!	!	!	!
16BB/LL	32gg/LLL	8g\	.	.	8g 8B/	.	8g/	.	4G\	-ni	4g/	-ni	4g\	-ni	2ryy	2ryy	4gg\	.	4gg\	.
.	32aa/	.	.	.	.	.	.	.	.	.	.	.	.	.	.	.	.	.	.	.
16G/	32gg/	.	.	.	.	.	.	.	.	.	.	.	.	.	.	.	.	.	.	.
.	32ff/JJJ	.	.	.	.	.	.	.	.	.	.	.	.	.	.	.	.	.	.	.
16D/	32gg/LLL	8ryy	.	.	8r	.	8r	.	.	.	.	.	.	.	.	.	.	.	.	.
.	32aa/	.	.	.	.	.	.	.	.	.	.	.	.	.	.	.	.	.	.	.
16G/JJ	32gg/	.	.	.	.	.	.	.	.	.	.	.	.	.	.	.	.	.	.	.
.	32ff/JJJ	.	.	.	.	.	.	.	.	.	.	.	.	.	.	.	.	.	.	.
*rep	*	*	*	*	*	*	*	*	*	*	*	*	*	*	*	*	*	*	*	*
16BB/LL	32gg/LLL	4ryy	.	.	8r	.	8r	.	4r	.	4r	.	4r	.	.	.	4r	.	4r	.
.	32ff/	.	.	.	.	.	.	.	.	.	.	.	.	.	.	.	.	.	.	.
16G/	32ee/	.	.	.	.	.	.	.	.	.	.	.	.	.	.	.	.	.	.	.
.	32dd/JJJ	.	.	.	.	.	.	.	.	.	.	.	.	.	.	.	.	.	.	.
16D/	32cc/LLL	.	.	.	8B/	.	8g/	.	.	.	.	.	.	.	.	.	.	.	.	.
.	32b/	.	.	.	.	.	.	.	.	.	.	.	.	.	.	.	.	.	.	.
16G/JJ	32a/	.	.	.	.	.	.	.	.	.	.	.	.	.	.	.	.	.	.	.
.	32g/JJJ	.	.	.	.	.	.	.	.	.	.	.	.	.	.	.	.	.	.	.
*Xrep	*	*	*	*	*	*	*	*	*	*	*	*	*	*	*	*	*	*	*	*
*	*v	*v	*	*	*	*	*	*	*	*	*	*	*	*	*	*	*	*	*	*
!	!	!	!	!	!	!	!	!	!	!LO:LB:g=original	!	!	!	!	!	!	!	!	!
=13	=13	=13	=13	=13	=13	=13	=13	=13	=13	=13	=13	=13	=13	=13	=13	=13	=13	=13	=13
!	!	!	!	!	!	!	!	!LO:TX:a:t=5	!	!LO:TX:a:t=5	!	!LO:TX:a:t=5	!	!	!	!LO:TX:a:t=5	!	!LO:TX:a:t=5	!
16C/LL	32ee\LLL	.	.	8c/	.	8a/	.	0r	.	0r	.	0r	.	2ryy	2ryy	0r	.	0r	.
.	32ff#\	.	.	.	.	.	.	.	.	.	.	.	.	.	.	.	.	.	.
16A/	32ee\	.	.	.	.	.	.	.	.	.	.	.	.	.	.	.	.	.	.
.	32dd#\JJJ	.	.	.	.	.	.	.	.	.	.	.	.	.	.	.	.	.	.
16E/	32ee\LLL	.	.	8r	.	8r	.	.	.	.	.	.	.	.	.	.	.	.	.
.	32ff#\	.	.	.	.	.	.	.	.	.	.	.	.	.	.	.	.	.	.
16A/JJ	32ee\	.	.	.	.	.	.	.	.	.	.	.	.	.	.	.	.	.	.
.	32dd#\JJJ	.	.	.	.	.	.	.	.	.	.	.	.	.	.	.	.	.	.
*rep	*	*	*	*	*	*	*	*	*	*	*	*	*	*	*	*	*	*	*
16C/LL	32ee/LLL	.	.	8r	.	8r	.	.	.	.	.	.	.	.	.	.	.	.	.
.	32dd/	.	.	.	.	.	.	.	.	.	.	.	.	.	.	.	.	.	.
16A/	32cc/	.	.	.	.	.	.	.	.	.	.	.	.	.	.	.	.	.	.
.	32b/JJJ	.	.	.	.	.	.	.	.	.	.	.	.	.	.	.	.	.	.
16E/	32a/LLL	.	.	8c/	.	8a/	.	.	.	.	.	.	.	.	.	.	.	.	.
.	32g/	.	.	.	.	.	.	.	.	.	.	.	.	.	.	.	.	.	.
16A/JJ	32f/	.	.	.	.	.	.	.	.	.	.	.	.	.	.	.	.	.	.
.	32e/JJJ	.	.	.	.	.	.	.	.	.	.	.	.	.	.	.	.	.	.
*Xrep	*	*	*	*	*	*	*	*	*	*	*	*	*	*	*	*	*	*	*
!LO:LB:g=original	!LO:LB:g=original	!	!	!	!	!	!	!	!	!	!	!	!	!	!	!	!	!	!
=14	=14	=14	=14	=14	=14	=14	=14	=14	=14	=14	=14	=14	=14	=14	=14	=14	=14	=14	=14
!	!LO:TX:t=P:problem=mixed beam	!	!	!	!	!	!	!	!	!	!	!	!	!	!	!	!	!	!
16D\LL	(16dn/LL	.	.	8d/	.	8g/	.	.	.	.	.	.	.	2ryy	2ryy	.	.	.	.
16B\	16dd\	.	.	.	.	.	.	.	.	.	.	.	.	.	.	.	.	.	.
16G\	16b\	.	.	8r	.	8r	.	.	.	.	.	.	.	.	.	.	.	.	.
16B\JJ	16g\JJ)	.	.	.	.	.	.	.	.	.	.	.	.	.	.	.	.	.	.
16D\LL	(16dd\LL	.	.	8d/	.	8a/	.	.	.	.	.	.	.	.	.	.	.	.	.
16A\	16cc\)	.	.	.	.	.	.	.	.	.	.	.	.	.	.	.	.	.	.
16F#\	(16a\	.	.	8r	.	8r	.	.	.	.	.	.	.	.	.	.	.	.	.
16A\JJ	16f#\JJ)	.	.	.	.	.	.	.	.	.	.	.	.	.	.	.	.	.	.
=15	=15	=15	=15	=15	=15	=15	=15	=15	=15	=15	=15	=15	=15	=15	=15	=15	=15	=15	=15
16BB\LL	32gg\LLL	.	.	8B/	.	8g/	.	.	.	.	.	.	.	2ryy	2ryy	.	.	.	.
.	32aa\	.	.	.	.	.	.	.	.	.	.	.	.	.	.	.	.	.	.
16G\	32gg\	.	.	.	.	.	.	.	.	.	.	.	.	.	.	.	.	.	.
.	32ff#\JJJ	.	.	.	.	.	.	.	.	.	.	.	.	.	.	.	.	.	.
16D\	32gg\LLL	.	.	8r	.	8r	.	.	.	.	.	.	.	.	.	.	.	.	.
.	32aa\	.	.	.	.	.	.	.	.	.	.	.	.	.	.	.	.	.	.
16G\JJ	32gg\	.	.	.	.	.	.	.	.	.	.	.	.	.	.	.	.	.	.
.	32ff#X\JJJ	.	.	.	.	.	.	.	.	.	.	.	.	.	.	.	.	.	.
16BB\LL	32gg/LLL	.	.	8B/	.	8r	.	.	.	.	.	.	.	.	.	.	.	.	.
.	32ff#/	.	.	.	.	.	.	.	.	.	.	.	.	.	.	.	.	.	.
16G\	32ee/	.	.	.	.	.	.	.	.	.	.	.	.	.	.	.	.	.	.
.	32dd/JJJ	.	.	.	.	.	.	.	.	.	.	.	.	.	.	.	.	.	.
16D\	32cc/LLL	.	.	8r	.	8g/	.	.	.	.	.	.	.	.	.	.	.	.	.
.	32b/	.	.	.	.	.	.	.	.	.	.	.	.	.	.	.	.	.	.
16G\JJ	32a/	.	.	.	.	.	.	.	.	.	.	.	.	.	.	.	.	.	.
.	32g/JJJ	.	.	.	.	.	.	.	.	.	.	.	.	.	.	.	.	.	.
!	!	!	!	!LO:LB:g=original	!	!	!	!	!	!	!	!	!	!	!	!	!	!	!
=16	=16	=16	=16	=16	=16	=16	=16	=16	=16	=16	=16	=16	=16	=16	=16	=16	=16	=16	=16
16C\LL	32ee\LLL	.	.	8c/	.	8a/	.	.	.	.	.	.	.	2ryy	2ryy	.	.	.	.
.	32ff#\	.	.	.	.	.	.	.	.	.	.	.	.	.	.	.	.	.	.
16A\	32ee\	.	.	.	.	.	.	.	.	.	.	.	.	.	.	.	.	.	.
.	32dd#X\JJJ	.	.	.	.	.	.	.	.	.	.	.	.	.	.	.	.	.	.
16E\	32ee\LLL	.	.	8r	.	8r	.	.	.	.	.	.	.	.	.	.	.	.	.
.	32ff#\	.	.	.	.	.	.	.	.	.	.	.	.	.	.	.	.	.	.
16A\JJ	32ee\	.	.	.	.	.	.	.	.	.	.	.	.	.	.	.	.	.	.
.	32dd#\JJJ	.	.	.	.	.	.	.	.	.	.	.	.	.	.	.	.	.	.
*rep	*	*	*	*	*	*	*	*	*	*	*	*	*	*	*	*	*	*	*
16C\LL	32ee\LLL	.	.	8c/	.	8r	.	.	.	.	.	.	.	.	.	.	.	.	.
.	32dd\	.	.	.	.	.	.	.	.	.	.	.	.	.	.	.	.	.	.
16A\	32cc\	.	.	.	.	.	.	.	.	.	.	.	.	.	.	.	.	.	.
.	32b\JJJ	.	.	.	.	.	.	.	.	.	.	.	.	.	.	.	.	.	.
16E\	32a/LLL	.	.	8r	.	8a/	.	.	.	.	.	.	.	.	.	.	.	.	.
.	32g/	.	.	.	.	.	.	.	.	.	.	.	.	.	.	.	.	.	.
16A\JJ	32f/	.	.	.	.	.	.	.	.	.	.	.	.	.	.	.	.	.	.
.	32e/JJJ	.	.	.	.	.	.	.	.	.	.	.	.	.	.	.	.	.	.
*Xrep	*	*	*	*	*	*	*	*	*	*	*	*	*	*	*	*	*	*	*
!	!	!	!	!	!	!LO:LB:g=original	!	!	!	!	!	!	!	!	!	!	!	!	!
=17	=17	=17	=17	=17	=17	=17	=17	=17	=17	=17	=17	=17	=17	=17	=17	=17	=17	=17	=17
!	!LO:TX:t=P:problem=mixed beam	!	!	!	!	!	!	!	!	!	!	!	!	!	!	!	!	!	!
16D\LL	16d/LL	.	.	8d/	.	8b/	.	2r	.	2r	.	2r	.	2ryy	2ryy	2r	.	2r	.
16B\	16dd\	.	.	.	.	.	.	.	.	.	.	.	.	.	.	.	.	.	.
16G\	16b\	.	.	8r	.	8r	.	.	.	.	.	.	.	.	.	.	.	.	.
16B\JJ	16a\JJ	.	.	.	.	.	.	.	.	.	.	.	.	.	.	.	.	.	.
.	8qdd/	.	.	.	.	.	.	.	.	.	.	.	.	.	.	.	.	.	.
16D\LL	8cc/L	.	.	8d/	.	8a/	.	.	.	.	.	.	.	.	.	.	.	.	.
16A\	.	.	.	.	.	.	.	.	.	.	.	.	.	.	.	.	.	.	.
16F#\	16a/L	.	.	8r	.	8r	.	.	.	.	.	.	.	.	.	.	.	.	.
16A\JJ	16f#/JJ	.	.	.	.	.	.	.	.	.	.	.	.	.	.	.	.	.	.
!LO:LB:g=original	!LO:LB:g=original	!	!	!	!	!	!	!	!	!	!	!	!	!	!	!	!	!LO:LB:g=original	!
=18	=18	=18	=18	=18	=18	=18	=18	=18	=18	=18	=18	=18	=18	=18	=18	=18	=18	=18	=18
!	!	!	!	!	!	!	!	!LO:TX:a:t=1	!	!	!	!	!	!	!	!	!	!	!
16B\LL	16g/LL	.	.	16B/LL	.	16g/LL	.	2r	.	4r	.	4r	.	2ryy	2ryy	4r	.	4r	.
16d\	16b/	.	.	16d/	.	16b/	.	.	.	.	.	.	.	.	.	.	.	.	.
16c\	16a/	.	.	16c/	.	16a/	.	.	.	.	.	.	.	.	.	.	.	.	.
16d\JJ	16b/JJ	.	.	16d/JJ	.	16b/JJ	.	.	.	.	.	.	.	.	.	.	.	.	.
!	!	!	!LO:DY:a:t=Pia	!	!	!LO:TX:t=P:problem=mixed beam	!	!	!	!	!	!	!	!	!	!	!	!	!
8B\	8g/	.	p	8B/	.	8g/L	.	.	.	8r	.	8r	.	.	.	8r	.	8r	.
8r	(16gg\LL	qui	.	8r	.	16gg\L	.	.	.	16gg\LL	qui	(16gg\LL	qui	.	.	8ee\	.	8ccc#X\	.
.	16ee\JJ)	.	.	.	.	16ee\JJ	.	.	.	16ee\JJ	.	16ee\JJ)	.	.	.	.	.	.	.
=19	=19	=19	=19	=19	=19	=19	=19	=19	=19	=19	=19	=19	=19	=19	=19	=19	=19	=19	=19
4r	16dd\LL	ve-	.	4r	.	16dd\LL	.	4r	.	(16dd\LL	ve-	(16dd\LL	ve-	2ryy	2ryy	8ff#X\	.	8ddd\	.
.	16cc#\JJ	.	.	.	.	16cc#X\	.	.	.	16cc#X\JJ)	.	16cc#X\JJ)	.	.	.	.	.	.	.
.	16b/LL	-nit	.	.	.	16b\	.	.	.	(16b\LL	-nit	(16b\LL	-nit	.	.	4ff#\	.	4ddd\	.
.	16a/JJ	.	.	.	.	16a\JJ	.	.	.	16a\JJ)	.	16a\JJ)	.	.	.	.	.	.	.
16r	8.aa\	qui	.	8r	.	8.aa\L	.	16r	.	8.aa\	qui	8.aa\	qui	.	.	.	.	.	.
16A\LL	.	.	.	.	.	.	.	16AA/	qui	.	.	.	.	.	.	.	.	.	.
16B\	.	.	.	16r	.	.	.	16BB/	ve-	.	.	.	.	.	.	8ee\	.	8ccc#X\	.
16c#\JJ	16gg\	.	.	16a/	.	16gg\Jk	.	16C#X/	-nit	16gg\	.	16gg\	.	.	.	.	.	.	.
=20	=20	=20	=20	=20	=20	=20	=20	=20	=20	=20	=20	=20	=20	=20	=20	=20	=20	=20	=20
8d\L	(16gg\LL	ve-	.	16a/KL	.	16gg\LL	.	8D\	qui	(16gg\LL	ve-	(16gg\LL	ve-	2ryy	2ryy	4dd\	.	4ddd\	.
!	!LO:SIC:v:s=16ff#\JJ)	!	!	!	!	!	!	!	!	!LO:SIC:v:s=16ff#\JJ)	!	!LO:SIC:v:s=16ff#\JJ)	!	!	!	!	!	!	!
.	16ff\JJ)	.	.	8a/	.	16ff#X\	.	.	.	16ff\JJ)	.	16ff\JJ)	.	.	.	.	.	.	.
!	!LO:SIC:v:s=(16ff#\LL	!	!	!	!	!	!	!	!	!LO:SIC:v:s=(16ff#LL	!	!LO:SIC:v:s=(16ff#\LL	!	!	!	!	!	!	!
8e\J	(16ff\LL	-nit	.	.	.	16ff#\	.	8E\	ve-	(16ff\LL	.	(16ff\LL	.	.	.	.	.	.	.
.	16ee\JJ)	.	.	16a/Jk	.	16ee\JJ	.	.	.	16ee\JJ)	.	16ee\JJ)	.	.	.	.	.	.	.
!LO:N:vis=4	!	!	!	!	!	!	!	!	!	!	!	!	!	!	!	!	!	!	!
8f\	8dd|\	.	.	8a/	.	8dd\L	.	4F\	-nit	8dd\	-nit	8dd|\L	-nit	.	.	8r	.	8r	.
!	!LO:SIC:v:s=16ff#\LL	!	!	!	!	!	!	!	!	!LO:SIC:v:s=(16ff#\LL	!	!LO:SIC:v:s=(16ff#\LL	!	!	!	!	!	!	!
8r	16ff\LL	in	.	8r	.	16ff#\L	.	.	.	(16ff\LL	in	(16ff\L	in	.	.	8dd\	.	8bb\	.
.	16dd\JJ	.	.	.	.	16dd\JJ	.	.	.	16dd\JJ)	.	16dd\JJ)	.	.	.	.	.	.	.
=21	=21	=21	=21	=21	=21	=21	=21	=21	=21	=21	=21	=21	=21	=21	=21	=21	=21	=21	=21
4r	16ccn/LL	no-	.	4r	.	16ccn\LL	.	4r	.	(16ccn\LL	no-	(16ccn\LL	no-	2ryy	2ryy	8ee\	.	8cccn\L	.
.	16b/JJ	.	.	.	.	16b\	.	.	.	16b\JJ)	.	16b\JJ)	.	.	.	.	.	.	.
.	16a/LL	.	.	.	.	16a\	.	.	.	(16a\LL	-mi-	(16a\LL	.	.	.	4ee\	.	8ccc\J	.
.	16g/JJ	.	.	.	.	16g\JJ	.	.	.	16g\JJ)	-ne	16g\JJ)	.	.	.	.	.	.	.
16r	8.gg\	-mi-	.	8r	.	8ryy	.	16r	.	8.gg\	Do-	8.gg\	-mi-	.	.	.	.	4bb\	.
16G\LL	.	.	.	.	.	.	.	16G\	in	.	.	.	.	.	.	.	.	.	.
16A\	.	.	.	16r	.	16.gg\LL	.	16A\	nomi-	.	.	.	.	.	.	8dd\	.	.	.
16B\JJ	16ffn\	-ne	.	16g/	.	.	.	16B\	-ne	16ffn\	.	16ffn\	-ne	.	.	.	.	.	.
.	.	.	.	.	.	32ff\JJk	.	.	.	.	.	.	.	.	.	.	.	.	.
=22	=22	=22	=22	=22	=22	=22	=22	=22	=22	=22	=22	=22	=22	=22	=22	=22	=22	=22	=22
8c\L	(16ff\LL	Do-	.	16g/KL	.	16ff\LL	.	8c\	Do-	16ff\LL	-mi-	(16ff\LL	Do-	2ryy	2ryy	4cc\	.	8ccc\	.
.	16ee\JJ)	.	.	8g/	.	16ee\	.	.	.	16ee\JJ	.	16ee\JJ)	.	.	.	.	.	.	.
8d\J	(16ee\LL	-mi-	.	.	.	16ee\	.	8d\	-mi-	(16ee\LL	.	(16ee\LL	-mi-	.	.	.	.	8r	.
.	16dd\JJ)	.	.	16g/Jk	.	16dd\JJ	.	.	.	16dd\JJ)	.	16dd\JJ)	.	.	.	.	.	.	.
!LO:TX:t=P:problem=mixed beam	!	!	!	!	!	!LO:TX:t=P:problem=mixed beam	!	!	!	!	!	!	!	!	!	!	!	!	!
8e\L	8cc|\	-ni	.	8g/	.	8cc\L	.	8e\	-ni	8cc\	-ni	(8cc\L	-ni	.	.	8r	.	8r	.
8E/J	8g/	in	.	8r	.	8g/J	.	8r	.	8g\	in	8g\J)	in	.	.	8g/	.	8gg\	.
!	!	!	!	!	!	!	!	!LO:LB:g=original	!	!	!	!LO:LB:g=original	!	!	!	!LO:LB:g=original	!	!	!
=23	=23	=23	=23	=23	=23	=23	=23	=23	=23	=23	=23	=23	=23	=23	=23	=23	=23	=23	=23
!	!	!	!	!	!	!	!	!LO:TX:a:t=2	!	!	!	!	!	!	!	!	!	!	!
8F\L	(16a/LL	no-	.	8r	.	8a/L	.	1r	.	(16a\LL	no-	(16a\LL	no-	2ryy	2ryy	8a/L|	.	8aa\L	.
.	16cc/)	.	.	.	.	.	.	.	.	16cc\	.	16cc\JJ)	.	.	.	.	.	.	.
8F\J	(16b/	.	.	8g/	.	8b/	.	.	.	16b\	.	(16b\LL	.	.	.	8b/|	.	8bb\	.
.	16dd/JJ)	.	.	.	.	.	.	.	.	16dd\JJ)	.	16dd\JJ)	.	.	.	.	.	.	.
8E/L	(16cc\LL	.	.	8g\L	.	8cc/	.	.	.	(16cc\LL	.	(16cc\LL	.	.	.	8cc/|	.	8ccc\	.
.	16ee\)	.	.	.	.	.	.	.	.	16ee\	.	16ee\JJ)	.	.	.	.	.	.	.
8BB/J	(16dd\	.	.	(16b\L	.	8dd/J	.	.	.	16dd\	.	(16dd\LL	.	.	.	8dd/J|	.	8ddd\J	.
.	16ff\JJ)	.	.	16dd\JJ)	.	.	.	.	.	16ff\JJ)	.	16ff\JJ)	.	.	.	.	.	.	.
!LO:LB:g=original	!LO:LB:g=original	!	!	!	!	!	!	!	!	!LO:LB:g=original	!	!	!	!	!	!	!	!	!
=24	=24	=24	=24	=24	=24	=24	=24	=24	=24	=24	=24	=24	=24	=24	=24	=24	=24	=24	=24
*^	*	*	*	*	*	*	*	*	*	*	*	*	*	*	*	*	*	*	*
*2\right	*	*	*	*	*	*	*	*	*	*	*	*	*	*	*	*	*	*	*	*
!	!	!	!	!	!	!	!LO:TX:t=P:problem=mixed beam	!	!	!	!	!	!	!	!	!	!	!	!	!
8C/L	2G\	16ee\LL	.	.	16cc\LL	.	8ee\L	.	.	.	16ee\LL	.	(16ee\LL	.	2ryy	2ryy	4ee\	.	4eee\	.
.	.	16gg\JJ	.	.	16ee\	.	.	.	.	.	16gg\	.	16gg\JJ)	.	.	.	.	.	.	.
8D/J	.	16ff\LL	-mi-	.	16dd\	.	8ff\	.	.	.	16ff\	-mi-	(16ff\LL	-mi-	.	.	.	.	.	.
.	.	16aa\JJ	.	.	16ff\JJ	.	.	.	.	.	16aa\JJ	.	16aa\JJ)	.	.	.	.	.	.	.
!	!	!	!	!	!LO:TX:t=P:problem=mixed beam	!	!	!	!	!	!	!	!	!	!	!	!	!	!	!
8E/L	.	4gg\	-ne	.	8ee\L	.	8gg\	.	.	.	4gg\	-ne	4gg\	-ne	.	.	8r	.	8r	.
8C/J	.	.	.	.	8e/J	.	8g/J	.	.	.	.	.	.	.	.	.	8ee\	.	8gg\	.
*v	*v	*	*	*	*	*	*	*	*	*	*	*	*	*	*	*	*	*	*	*
=25	=25	=25	=25	=25	=25	=25	=25	=25	=25	=25	=25	=25	=25	=25	=25	=25	=25	=25	=25
!	!	!	!	!	!	!LO:TX:t=P:problem=mixed beam	!	!	!	!	!	!	!	!	!	!	!	!	!
4F\	8r	.	.	8f/L	.	8a/L	.	4F\	Do-	8r	.	8r	.	2ryy	2ryy	8ffn\L|	.	8aa\L	.
.	(16ff\LL	Do-	.	16a/L	.	8ff\	.	.	.	16ff\LL	Do-	(16ff\LL	Do-	.	.	8ff\|	.	8ddd\	.
.	16dd\JJ)	.	.	16f/JJ	.	.	.	.	.	16dd\JJ	.	16dd\JJ)	.	.	.	.	.	.	.
!LO:TX:t=P:problem=mixed beam	!	!	!	!	!	!	!	!LO:TX:t=P:problem=mixed beam	!	!	!	!	!	!	!	!	!	!	!
8G\L	(16ee\LL	-mi-	.	16g/LL	.	8ee\	.	8G\L	.	(16ee\LL	.	(16ee\LL	-mi-	.	.	(8ee\	.	8ccc\	.
.	16cc\JJ)	.	.	16e/	.	.	.	.	.	16cc\JJ)	.	16cc\JJ)	.	.	.	.	.	.	.
8GG/J	(16dd\LL	-ni	.	16f/	.	8dd\J	.	8GG/J	-mi-	(16dd\LL	-mi-	(16dd\LL	.	.	.	8dd\J)	.	8bb\J	.
.	16b\JJ)	.	.	16d/JJ	.	.	.	.	.	16b\JJ)	.	16b\JJ)	.	.	.	.	.	.	.
!	!	!	!	!LO:LB:g=original	!	!	!	!	!	!	!	!	!	!	!	!	!	!LO:LB:g=original	!
=26	=26	=26	=26	=26	=26	=26	=26	=26	=26	=26	=26	=26	=26	=26	=26	=26	=26	=26	=26
*	*^	*	*	*	*	*	*	*	*	*	*	*	*	*	*	*	*	*	*
!LO:TX:a:i:t=Solo	!LO:TX:a:i:t=Solo	!	!	!	!	!	!	!	!	!	!	!	!	!	!	!	!	!	!	!
16E\LL	(32ccc\LLL	4cc\	.	.	8e/	.	8cc\	.	4C/	-ni	4cc\	-ni	4cc\)	-ni	2ryy	2ryy	4ee\	.	4ccc\	.
.	32ddd\	.	.	.	.	.	.	.	.	.	.	.	.	.	.	.	.	.	.	.
16c\	32ccc\	.	.	.	.	.	.	.	.	.	.	.	.	.	.	.	.	.	.	.
.	32bb\JJJ)	.	.	.	.	.	.	.	.	.	.	.	.	.	.	.	.	.	.	.
16G\	(32ccc\LLL	.	.	.	8r	.	8r	.	.	.	.	.	.	.	.	.	.	.	.	.
.	32ddd\	.	.	.	.	.	.	.	.	.	.	.	.	.	.	.	.	.	.	.
16c\JJ	32ccc\	.	.	.	.	.	.	.	.	.	.	.	.	.	.	.	.	.	.	.
.	32bb\JJJ)	.	.	.	.	.	.	.	.	.	.	.	.	.	.	.	.	.	.	.
*rep	*	*	*	*	*	*	*	*	*	*	*	*	*	*	*	*	*	*	*	*
16E\LL	(32ccc\LLL	4ryy	.	.	8r	.	8r	.	4r	.	4r	.	4r	.	.	.	4r	.	4r	.
.	32bb\	.	.	.	.	.	.	.	.	.	.	.	.	.	.	.	.	.	.	.
16c\	32aa\	.	.	.	.	.	.	.	.	.	.	.	.	.	.	.	.	.	.	.
.	32gg\JJJ)	.	.	.	.	.	.	.	.	.	.	.	.	.	.	.	.	.	.	.
16G\	(32ff\LLL	.	.	.	8e/	.	8cc\	.	.	.	.	.	.	.	.	.	.	.	.	.
.	32ee\	.	.	.	.	.	.	.	.	.	.	.	.	.	.	.	.	.	.	.
16c\JJ	32dd\	.	.	.	.	.	.	.	.	.	.	.	.	.	.	.	.	.	.	.
.	32cc\JJJ)	.	.	.	.	.	.	.	.	.	.	.	.	.	.	.	.	.	.	.
*Xrep	*	*	*	*	*	*	*	*	*	*	*	*	*	*	*	*	*	*	*	*
*	*v	*v	*	*	*	*	*	*	*	*	*	*	*	*	*	*	*	*	*	*
=27	=27	=27	=27	=27	=27	=27	=27	=27	=27	=27	=27	=27	=27	=27	=27	=27	=27	=27	=27
!	!	!	!	!	!	!	!	!	!	!	!	!LO:TX:t=P:problem=poprawione ołówkiem na 5	!	!	!	!	!	!	!
!	!	!	!	!	!	!	!	!LO:TX:a:t=6	!	!	!	!LO:TX:a:t=6	!	!	!	!LO:TX:a:t=5	!	!LO:TX:a:t=5	!
16F\LL	(32aa\LLL	.	.	8f/	.	8dd\	.	0r	.	0r	.	0r	.	2ryy	2ryy	0r	.	0r	.
.	32bb\	.	.	.	.	.	.	.	.	.	.	.	.	.	.	.	.	.	.
16d\	32aa\	.	.	.	.	.	.	.	.	.	.	.	.	.	.	.	.	.	.
.	32gg#X\JJJ)	.	.	.	.	.	.	.	.	.	.	.	.	.	.	.	.	.	.
16A\	(32aa\LLL	.	.	8r	.	8r	.	.	.	.	.	.	.	.	.	.	.	.	.
.	32bb\	.	.	.	.	.	.	.	.	.	.	.	.	.	.	.	.	.	.
16d\JJ	32aa\	.	.	.	.	.	.	.	.	.	.	.	.	.	.	.	.	.	.
.	32gg#\JJJ)	.	.	.	.	.	.	.	.	.	.	.	.	.	.	.	.	.	.
*rep	*	*	*	*	*	*	*	*	*	*	*	*	*	*	*	*	*	*	*
16F\LL	(32aa\LLL	.	.	8r	.	8r	.	.	.	.	.	.	.	.	.	.	.	.	.
.	32gg\	.	.	.	.	.	.	.	.	.	.	.	.	.	.	.	.	.	.
16d\	32ffn\	.	.	.	.	.	.	.	.	.	.	.	.	.	.	.	.	.	.
.	32ee\JJJ)	.	.	.	.	.	.	.	.	.	.	.	.	.	.	.	.	.	.
16A\	(32dd\LLL	.	.	8f/	.	8dd\	.	.	.	.	.	.	.	.	.	.	.	.	.
.	32cc\	.	.	.	.	.	.	.	.	.	.	.	.	.	.	.	.	.	.
16d\JJ	32b\	.	.	.	.	.	.	.	.	.	.	.	.	.	.	.	.	.	.
.	32a\JJJ)	.	.	.	.	.	.	.	.	.	.	.	.	.	.	.	.	.	.
*Xrep	*	*	*	*	*	*	*	*	*	*	*	*	*	*	*	*	*	*	*
!LO:LB:g=original	!LO:LB:g=original	!	!	!	!	!LO:LB:g=original	!	!	!	!	!	!	!	!	!	!	!	!	!
=28	=28	=28	=28	=28	=28	=28	=28	=28	=28	=28	=28	=28	=28	=28	=28	=28	=28	=28	=28
!	!LO:TX:t=P:problem=mixed beam	!	!	!	!	!	!	!	!	!	!	!	!	!	!	!	!	!	!
16G\LL	(16g/LL	.	.	8g/	.	8ee\	.	.	.	.	.	.	.	2ryy	2ryy	.	.	.	.
16e\	16gg\	.	.	.	.	.	.	.	.	.	.	.	.	.	.	.	.	.	.
16c\	16ee\	.	.	8r	.	8r	.	.	.	.	.	.	.	.	.	.	.	.	.
16e\JJ	16cc\JJ)	.	.	.	.	.	.	.	.	.	.	.	.	.	.	.	.	.	.
16G\LL	(16gg\LL	.	.	8g/	.	8dd\	.	.	.	.	.	.	.	.	.	.	.	.	.
16d\	16ff\	.	.	.	.	.	.	.	.	.	.	.	.	.	.	.	.	.	.
16B\	16dd\	.	.	8r	.	8r	.	.	.	.	.	.	.	.	.	.	.	.	.
16d\JJ	16b\JJ)	.	.	.	.	.	.	.	.	.	.	.	.	.	.	.	.	.	.
=29	=29	=29	=29	=29	=29	=29	=29	=29	=29	=29	=29	=29	=29	=29	=29	=29	=29	=29	=29
16E\LL	(32ccc\LLL	.	.	8e/	.	8cc\	.	.	.	.	.	.	.	2ryy	2ryy	.	.	.	.
.	32ddd\	.	.	.	.	.	.	.	.	.	.	.	.	.	.	.	.	.	.
16c\	32ccc\	.	.	.	.	.	.	.	.	.	.	.	.	.	.	.	.	.	.
.	32bb\JJJ)	.	.	.	.	.	.	.	.	.	.	.	.	.	.	.	.	.	.
16G\	(32ccc\LLL	.	.	8r	.	8r	.	.	.	.	.	.	.	.	.	.	.	.	.
.	32ddd\	.	.	.	.	.	.	.	.	.	.	.	.	.	.	.	.	.	.
16c\JJ	32ccc\	.	.	.	.	.	.	.	.	.	.	.	.	.	.	.	.	.	.
.	32bb\JJJ)	.	.	.	.	.	.	.	.	.	.	.	.	.	.	.	.	.	.
*rep	*	*	*	*	*	*	*	*	*	*	*	*	*	*	*	*	*	*	*
16E\LL	(32ccc\LLL	.	.	8r	.	8r	.	.	.	.	.	.	.	.	.	.	.	.	.
.	32bb\	.	.	.	.	.	.	.	.	.	.	.	.	.	.	.	.	.	.
16c\	32aa\	.	.	.	.	.	.	.	.	.	.	.	.	.	.	.	.	.	.
.	32gg\JJJ)	.	.	.	.	.	.	.	.	.	.	.	.	.	.	.	.	.	.
16G\	(32ff\LLL	.	.	8e/	.	8cc\	.	.	.	.	.	.	.	.	.	.	.	.	.
.	32ee\	.	.	.	.	.	.	.	.	.	.	.	.	.	.	.	.	.	.
16c\JJ	32dd\	.	.	.	.	.	.	.	.	.	.	.	.	.	.	.	.	.	.
.	32cc\JJJ)	.	.	.	.	.	.	.	.	.	.	.	.	.	.	.	.	.	.
*Xrep	*	*	*	*	*	*	*	*	*	*	*	*	*	*	*	*	*	*	*
=30	=30	=30	=30	=30	=30	=30	=30	=30	=30	=30	=30	=30	=30	=30	=30	=30	=30	=30	=30
16F\LL	(32aa\LLL	.	.	8f/	.	8dd\	.	.	.	.	.	.	.	2ryy	2ryy	.	.	.	.
.	32bb\	.	.	.	.	.	.	.	.	.	.	.	.	.	.	.	.	.	.
16d\	32aa\	.	.	.	.	.	.	.	.	.	.	.	.	.	.	.	.	.	.
.	32gg#X\JJJ)	.	.	.	.	.	.	.	.	.	.	.	.	.	.	.	.	.	.
16A\	(32aa\LLL	.	.	8r	.	8r	.	.	.	.	.	.	.	.	.	.	.	.	.
.	32bb\	.	.	.	.	.	.	.	.	.	.	.	.	.	.	.	.	.	.
16d\JJ	32aa\	.	.	.	.	.	.	.	.	.	.	.	.	.	.	.	.	.	.
.	32gg#\JJJ)	.	.	.	.	.	.	.	.	.	.	.	.	.	.	.	.	.	.
*rep	*	*	*	*	*	*	*	*	*	*	*	*	*	*	*	*	*	*	*
16F\LL	(32aa\LLL	.	.	8r	.	8r	.	.	.	.	.	.	.	.	.	.	.	.	.
.	32gg\	.	.	.	.	.	.	.	.	.	.	.	.	.	.	.	.	.	.
16d\	32ffn\	.	.	.	.	.	.	.	.	.	.	.	.	.	.	.	.	.	.
.	32ee\JJJ)	.	.	.	.	.	.	.	.	.	.	.	.	.	.	.	.	.	.
16A\	(32dd\LLL	.	.	8f/	.	8dd\	.	.	.	.	.	.	.	.	.	.	.	.	.
.	32cc\	.	.	.	.	.	.	.	.	.	.	.	.	.	.	.	.	.	.
16d\JJ	32b\	.	.	.	.	.	.	.	.	.	.	.	.	.	.	.	.	.	.
.	32a\JJJ)	.	.	.	.	.	.	.	.	.	.	.	.	.	.	.	.	.	.
*Xrep	*	*	*	*	*	*	*	*	*	*	*	*	*	*	*	*	*	*	*
=31	=31	=31	=31	=31	=31	=31	=31	=31	=31	=31	=31	=31	=31	=31	=31	=31	=31	=31	=31
!	!LO:TX:t=P:problem=mixed beam	!	!	!	!	!	!	!	!	!	!	!	!	!	!	!	!	!	!
16G\LL	16g/LL	.	.	8g/	.	8ee\	.	1r	.	1r	.	1r	.	2ryy	2ryy	2r	.	2r	.
16e\	16gg\	.	.	.	.	.	.	.	.	.	.	.	.	.	.	.	.	.	.
16c\	16ee\	.	.	8r	.	8r	.	.	.	.	.	.	.	.	.	.	.	.	.
16e\JJ	16cc\JJ	.	.	.	.	.	.	.	.	.	.	.	.	.	.	.	.	.	.
.	16qqgg/	.	.	.	.	.	.	.	.	.	.	.	.	.	.	.	.	.	.
16G\LL	8ff\L	.	.	8g/	.	8dd\	.	.	.	.	.	.	.	.	.	.	.	.	.
16d\	.	.	.	.	.	.	.	.	.	.	.	.	.	.	.	.	.	.	.
16B\	16dd\L	.	.	8r	.	8r	.	.	.	.	.	.	.	.	.	.	.	.	.
16d\JJ	16b\JJ	.	.	.	.	.	.	.	.	.	.	.	.	.	.	.	.	.	.
=32	=32	=32	=32	=32	=32	=32	=32	=32	=32	=32	=32	=32	=32	=32	=32	=32	=32	=32	=32
!	!LO:TX:t=P:problem=zbędna pauza w S1, S2, B	!	!	!LO:TX:t=P:problem=zbędna pauza w S1, S2, B	!	!LO:TX:t=P:problem=zbędna pauza w S1, S2, B	!	!LO:TX:t=P:problem=zbędna pauza	!	!LO:TX:t=P:problem=zbędna pauza	!	!LO:TX:t=P:problem=zbędna pauza	!	!	!	!LO:TX:t=P:problem=zbędna pauza w S1, S2, B	!	!LO:TX:t=P:problem=zbędna pauza w S1, S2, B	!
2ryy	2ryy	.	.	2ryy	.	2ryy	.	.	.	.	.	.	.	2ryy	2ryy	2ryy	.	2ryy	.
=33	=33	=33	=33	=33	=33	=33	=33	=33	=33	=33	=33	=33	=33	=33	=33	=33	=33	=33	=33
16e\LL	16cc\LL	.	.	16e/LL	.	16cc\LL	.	16E\LL	no-	(16cc\LL	in	(16cc\LL	in-	2ryy	2ryy	(8ee\L	.	8ccc\L	.
16g\	16ee\	.	.	16g/	.	16ee\	.	16G\JJ	.	16ee\	.	16ee\)	.	.	.	.	.	.	.
16f\	16dd\	.	.	16f/	.	16dd\	.	16F\	-mi-	16dd\	no-	(16dd\	.	.	.	8dd\)	.	8bb\	.
16g\JJ	16ee\JJ	.	.	16g/JJ	.	16ee\JJ	.	16G\	-ne	16ee\JJ)	.	16ee\JJ)	.	.	.	.	.	.	.
*	*	*	*	*	*	*rep	*	*	*	*	*	*	*	*	*	*	*	*	*
16e\LL	16cc\LL	.	.	16e/LL	.	16cc\LL	.	16E\LL	Do-	(16cc\LL	-mi-	(16cc\LL	-no-	.	.	(8ee\	.	8ccc\	.
16g\	16ee\	.	.	16g/	.	16ee\	.	16G\JJ	.	16ee\	.	16ee\	.	.	.	.	.	.	.
16f\	16dd\	.	.	16f/	.	16dd\	.	16F\	-mi-	16dd\	-ne	16dd\	-mi-	.	.	8dd\J)	.	8bb\J	.
16g\JJ	16ee\JJ	.	.	16g/JJ	.	16ee\JJ	.	16G\	-ni	16ee\JJ)	.	16ee\JJ)	-ne	.	.	.	.	.	.
*	*	*	*	*	*	*Xrep	*	*	*	*	*	*	*	*	*	*	*	*	*
=34	=34	=34	=34	=34	=34	=34	=34	=34	=34	=34	=34	=34	=34	=34	=34	=34	=34	=34	=34
8e\L	8cc\L	.	.	8e/L	.	8cc\L	.	8E\	Do-	8cc\	Do-	8cc\	Do-	2ryy	2ryy	8ee\L|	.	8ccc\L	.
8c\	8ccc 8gg 8ee\	.	.	8cc 8e/	.	8ee 8cc\	.	8C\	-mi-	8cc\	-mi-	8cc\	-mi-	.	.	8ee\J|	.	8ccc\	.
8c\J	8cccJ 8gg 8ee\	.	.	8ccJ 8e/	.	8eeJ 8cc\	.	8C\	-ni.	8cc\	-ni.	8cc\	-ni.	.	.	4ee\	.	8ccc\J	.
!	!	!	!	!	!	!	!	!	!	!	!	!	!	!	!	!LO:TX:b:t=33	!	!LO:TX:a:i:t=Oſanna ut Pleni	!
!LO:TX:b:i:t=Oſsana ut Pleni.	!LO:TX:b:t=33	!	!	!LO:TX:a:t=33:color=red	!	!LO:TX:a:t=33 Taktow	!	!	!	!LO:TX:a:i:t=Oſanna ut Pleni	!	!LO:TX:b:i:t=Osſanna ut pleni	!	!LO:TX:a:i:t=Oſanna ut Pleni	!LO:TX:a:i:t=Oſanna ut Pleni	!LO:TX:b:i:t=Oſanna ut Pleni\nVerte Agnus Dei	!	!LO:TX:b:t=33\nVerte Agnus Dei	!
8r	8r	.	.	8r	.	8r	.	8r	.	8r	.	8r	.	.	.	.	.	8r	.
==	==	==	==	==	==	==	==	==	==	==	==	==	==	==	==	==	==	==	==
*-	*-	*-	*-	*-	*-	*-	*-	*-	*-	*-	*-	*-	*-	*-	*-	*-	*-	*-	*-
!!!system-decoration: [(g1)][(g2)][(g3)][(g4)]{(s10,s11)}
!!!RDF**dynam: p = "Piano"
!!!RDF**kern: | = vertical stroke
!!!ENC: Kamil Watkowski
!!!END: 2020-09-09
!!!ENC: Andrzej Kubiczek
!!!END: 2022-01-26
!!!YEC: Copyright 2022 Narodowy Instytut Fryderyka Chopina (https://polishscores.org)
!!!YEM: License CC-BY-4.0 (https://creativecommons.org/licenses/by/4.0)
